X:23
T:Golden Slippers
M:2/4
L:1/8
K:G
G/2A/2| "G"BB BG/2A/2 | BB BG/2A/2 | BB cB | "D7"BA AF/2G/2 |\
AA AF/2G/2 | AA AF/2G/2 | Ac BA | "G"G3 :|]
[|: D | "G"D3 G | BA GD | "Am"E3 A | cB AE |\
"D7"F3/2F/2 FG |1 AA A2 | "G"GF GA | BG E :|]2 "D7"AA c2 | BcBA | "G"G3 |]

%%newpage


